icons/24x24_rocket_filled.svg

<svg width="24" height="24" viewBox="0 0 24 24" fill="none" xmlns="http://www.w3.org/2000/svg">
<path fill-rule="evenodd" clip-rule="evenodd" d="M19.9302 2.07341C17.4618 1.73401 14.9787 2.58365 13.2173 4.3704L11.652 5.95822L6.01284 7.02526C5.81496 7.0627 5.63288 7.16002 5.49054 7.3044L3.24099 9.58632C3.04627 9.78385 3.04627 10.1041 3.24099 10.3016L4.95305 12.0383C5.14778 12.2358 5.46349 12.2358 5.65821 12.0383L6.19861 11.4902L12.6274 18.0114L12.0868 18.5597C11.8921 18.7572 11.8921 19.0775 12.0868 19.275L13.7989 21.0117C13.9936 21.2092 14.3093 21.2092 14.5041 21.0117L16.7536 18.7298C16.896 18.5854 16.9919 18.4007 17.0288 18.2L18.0728 12.5223L19.6632 10.9091C21.4246 9.12231 22.2622 6.60355 21.9276 4.0996L21.8931 3.8415C21.7727 2.93979 21.0735 2.23062 20.1846 2.10839L19.9302 2.07341ZM15.9845 8.07667C16.5687 8.66925 17.5158 8.66925 18.1 8.07667C18.6842 7.48409 18.6842 6.52333 18.1 5.93075C17.5158 5.33817 16.5687 5.33817 15.9845 5.93075C15.4003 6.52333 15.4003 7.48409 15.9845 8.07667Z" fill="#1A1C20"/>
<path d="M5.11273 14.8353C5.50218 14.4403 6.1336 14.4403 6.52305 14.8353C6.9125 15.2304 6.9125 15.8709 6.52305 16.2659L3.70241 19.1272C3.31296 19.5222 2.68154 19.5222 2.29209 19.1272C1.90264 18.7321 1.90264 18.0916 2.29209 17.6966L5.11273 14.8353Z" fill="#1A1C20"/>
<path d="M7.22821 18.4119C7.61766 18.0168 8.24908 18.0168 8.63853 18.4119C9.02798 18.8069 9.02798 19.4474 8.63853 19.8425L5.81789 22.7037C5.42844 23.0988 4.79702 23.0988 4.40757 22.7037C4.01812 22.3087 4.01812 21.6681 4.40757 21.2731L7.22821 18.4119Z" fill="#1A1C20"/>
</svg>

<svg width="24" height="24" fill="none" xmlns="http://www.w3.org/2000/svg"><path fill-rule="evenodd" clip-rule="evenodd" d="M19.93 2.073a7.91 7.91 0 0 0-6.713 2.297l-1.565 1.588-5.64 1.067a.993.993 0 0 0-.521.28L3.24 9.585a.51.51 0 0 0 0 .716l1.712 1.736c.195.198.51.198.705 0l.54-.548 6.43 6.521-.541.549a.511.511 0 0 0 0 .715l1.712 1.737c.195.197.51.197.705 0l2.25-2.282c.142-.145.238-.33.275-.53l1.044-5.678 1.59-1.613a8.164 8.164 0 0 0 2.265-6.81l-.035-.258a2.009 2.009 0 0 0-1.708-1.733l-.255-.035Zm-3.945 6.004a1.48 1.48 0 0 0 2.115 0 1.533 1.533 0 0 0 0-2.146 1.48 1.48 0 0 0-2.116 0 1.533 1.533 0 0 0 0 2.146Z" fill="#000"/><path d="M5.113 14.835a.987.987 0 0 1 1.41 0 1.02 1.02 0 0 1 0 1.43l-2.82 2.862a.987.987 0 0 1-1.41 0 1.022 1.022 0 0 1 0-1.43l2.82-2.862Zm2.115 3.577a.987.987 0 0 1 1.41 0 1.02 1.02 0 0 1 0 1.43l-2.82 2.862a.987.987 0 0 1-1.41 0 1.022 1.022 0 0 1 0-1.43l2.82-2.862Z" fill="#000"/></svg>
